src/assets/filled/Frame1.svg

<svg width="24" height="24" viewBox="0 0 24 24"  xmlns="http://www.w3.org/2000/svg">
<path d="M20.4101 6.95994V8.78994C20.4101 9.42994 20.1101 10.0299 19.5901 10.3999L8.59009 18.4599C7.88009 18.9799 6.91009 18.9799 6.21009 18.4499L4.77009 17.3699C4.12009 16.8799 3.59009 15.8199 3.59009 15.0099V6.95994C3.59009 5.83994 4.45009 4.59994 5.50009 4.20994L10.9701 2.15994C11.5401 1.94994 12.4601 1.94994 13.0301 2.15994L18.5001 4.20994C19.5501 4.59994 20.4101 5.83994 20.4101 6.95994Z" />
<path d="M18.8201 12.3399C19.4801 11.8599 20.4101 12.3299 20.4101 13.1499V15.0299C20.4101 15.8399 19.8801 16.8899 19.2301 17.3799L13.7601 21.4699C13.2801 21.8199 12.6401 21.9999 12.0001 21.9999C11.3601 21.9999 10.7201 21.8199 10.2401 21.4599L9.41011 20.8399C8.87011 20.4399 8.87011 19.6299 9.42011 19.2299L18.8201 12.3399Z" />
</svg>

<?xml version="1.0" encoding="UTF-8"?>
<svg width="24" height="24" viewBox="0 0 24 24" xmlns="http://www.w3.org/2000/svg">
 <path d="m20.41 6.9599v1.83c0 0.64-0.3 1.24-0.82 1.61l-11 8.06c-0.71 0.52-1.68 0.52-2.38-0.01l-1.44-1.08c-0.65-0.49-1.18-1.55-1.18-2.36v-8.05c0-1.12 0.86-2.36 1.91-2.75l5.47-2.05c0.57-0.21 1.49-0.21 2.06 0l5.47 2.05c1.05 0.39 1.91 1.63 1.91 2.75z"/>
 <path d="m18.82 12.34c0.66-0.48 1.59-0.01 1.59 0.81v1.88c0 0.81-0.53 1.86-1.18 2.35l-5.47 4.09c-0.48 0.35-1.12 0.53-1.76 0.53s-1.28-0.18-1.76-0.54l-0.82999-0.62c-0.54-0.4-0.54-1.21 0.01-1.61l9.4-6.89z"/>
</svg>
